Dominus_Dark_Funeral/symbolic/categories/applications-multimedia-symbolic.svg

<svg xmlns="http://www.w3.org/2000/svg" width="24" height="24"><path d="M14.873.243a.783.783 0 0 0-.76.783l1.566 13.691c0 .291.16.542.391.673v.932a1.957 1.957 0 0 0-.26 3.754 2.309 2.309 0 0 1-.713.843 1.947 1.947 0 0 0-1.766-1.113c-.773 0-1.446.45-1.757 1.113a2.348 2.348 0 0 1-.723-.843l-.015.002a1.957 1.957 0 0 0-.237-3.755v-1.207a1.957 1.957 0 0 0 0-3.825h-.782a1.957 1.957 0 0 0-.01 3.822v1.213a1.957 1.957 0 0 0-.027 3.812 1.947 1.947 0 0 0 .003 0 1.957 1.957 0 0 0 .034.01h.017a1.947 1.947 0 0 0 .204.03l-.197-.03h.435l-.238.03a3.12 3.12 0 0 0 1.345 1.546v.03a1.957 1.957 0 0 0 3.904 0v-.03a3.17 3.17 0 0 0 1.346-1.547 1.947 1.947 0 0 0 .22-3.854v-.933a.783.783 0 0 0 .392-.673L16.081 4.55a9.656 9.656 0 0 1 7.166 3.202l.643.713v-.302a6.725 6.725 0 0 0-3.002-5.611 6.725 6.725 0 0 0-3.723-1.125H15.72l-.04-.4a.783.783 0 0 0-.806-.783zm-4.274 11.048v-.52a1.947 1.947 0 0 0-.22-3.854 3.142 3.142 0 0 0-1.354-1.556v-.03a1.957 1.957 0 0 0-1.949-1.823 1.957 1.957 0 0 0-1.957 1.824v.03a3.267 3.267 0 0 0-1.334 1.555l.235.03h-.466a1.957 1.957 0 0 0 0 3.824v.863a1.957 1.957 0 0 0 0 3.825h.022a.391.391 0 0 0-.022.13v.526l-.784.79-.03.01-.402-.702-.682.4.402.704a3.413 3.413 0 0 0-.603.602l-.702-.402-.382.672.704.402c-.12.261-.192.532-.232.823H.04v.783h.803c.04.281.11.563.221.814l-.702.4.402.684.702-.402c.17.22.37.42.602.601l-.412.704.673.38.4-.702c.262.12.544.19.825.23v.804h.783v-.803c.29-.04.562-.11.823-.22l.402.702.682-.402-.402-.702c.22-.17.422-.37.603-.602l.702.412.382-.673-.704-.402a2.94 2.94 0 0 0 .222-.823h.802v-.783h-.802a3.112 3.112 0 0 0-.21-.823l.701-.402-.402-.682-.702.4a3.142 3.142 0 0 0-.602-.6l.401-.703-.671-.382-.402.702-.04-.02-.783-.764v-.55a.391.391 0 0 0-.023-.13h.023a1.957 1.957 0 0 0 0-3.826v-.863a1.957 1.957 0 0 0 .24-3.755l.01.002c.181-.342.422-.633.733-.843a1.947 1.947 0 0 0 3.513 0c.301.21.552.501.722.843a1.957 1.957 0 0 0 .262 3.753v.514zM7.078 4.158c.542 0 1.003.381 1.133.883a3.112 3.112 0 0 0-.742-.1v.782c.23 0 .46.04.671.1-.19.402-.59.683-1.062.683a1.18 1.18 0 0 1-1.065-.682c.211-.06.44-.101.672-.101V4.94c-.251 0-.502.04-.743.1.14-.501.593-.882 1.136-.882zM3.554 7.75v.711h.783V7.76a1.174 1.174 0 0 1 0 2.209v-.723h-.792v.712a1.174 1.174 0 0 1-.783-1.104h.01c0-.502.32-.933.782-1.103zm7.025 0c.462.15.805.592.805 1.104 0 .502-.333.934-.785 1.104v-.713h-.792v.703a1.174 1.174 0 0 1-.782-1.105l.01.011c0-.502.31-.924.752-1.095.02.1.03.202.03.312v.392h.782v-.392zm-.762 4.344v.712h.782v-.702a1.174 1.174 0 0 1 0 2.208v-.722h-.792v.712a1.174 1.174 0 0 1-.782-1.105h.01c0-.502.32-.932.782-1.103zm-6.263.344v.711h.783v-.702a1.174 1.174 0 0 1 0 2.209v-.723h-.792v.712a1.174 1.174 0 0 1-.783-1.104h.01c0-.502.32-.933.782-1.103zm6.253 4.692v.311c0 .017.008.03.01.047v.35h.782V17.135a1.174 1.174 0 0 1 0 2.209v-.723h-.792v.712a1.174 1.174 0 0 1-.782-1.104h.01c0-.499.316-.925.772-1.099zm6.263.005v.702h.783v-.702c.451.16.784.603.784 1.104 0 .512-.343.943-.804 1.103l.02-.32v-.402h-.783v.402l-.02.3a1.154 1.154 0 0 1-.763-1.083c0-.501.331-.943.783-1.104zm-12.516.712h.783v.784h-.783zm-1.556 1.566h.772v.783h-.772zm1.556 0h.783v.783h-.783zm1.565 0h.783v.783h-.783zm8.172 1.171a1.174 1.174 0 0 1 1.104.676c-.21.07-.442.1-.673.1v.783a3.011 3.011 0 0 0 .743-.09c-.131.502-.592.873-1.134.873-.542 0-.994-.37-1.125-.872.231.06.481.1.732.1v-.793c-.23 0-.45-.03-.671-.1a1.174 1.174 0 0 1 1.024-.677zm-9.737.395h.783v.773h-.783z" fill="gray"/></svg>

<?xml version="1.0" encoding="UTF-8" standalone="no"?>
<svg
   xmlns:dc="http://purl.org/dc/elements/1.1/"
   xmlns:cc="http://creativecommons.org/ns#"
   xmlns:rdf="http://www.w3.org/1999/02/22-rdf-syntax-ns#"
   xmlns:svg="http://www.w3.org/2000/svg"
   xmlns="http://www.w3.org/2000/svg"
   xmlns:sodipodi="http://sodipodi.sourceforge.net/DTD/sodipodi-0.dtd"
   xmlns:inkscape="http://www.inkscape.org/namespaces/inkscape"
   width="24"
   height="24"
   version="1.1"
   id="svg4"
   sodipodi:docname="applications-multimedia-symbolic.svg"
   inkscape:version="0.92.4 (5da689c313, 2019-01-14)">
  <metadata
     id="metadata10">
    <rdf:RDF>
      <cc:Work
         rdf:about="">
        <dc:format>image/svg+xml</dc:format>
        <dc:type
           rdf:resource="http://purl.org/dc/dcmitype/StillImage" />
        <dc:title></dc:title>
      </cc:Work>
    </rdf:RDF>
  </metadata>
  <defs
     id="defs8" />
  <sodipodi:namedview
     pagecolor="#ffffff"
     bordercolor="#666666"
     borderopacity="1"
     objecttolerance="10"
     gridtolerance="10"
     guidetolerance="10"
     inkscape:pageopacity="0"
     inkscape:pageshadow="2"
     inkscape:window-width="1112"
     inkscape:window-height="480"
     id="namedview6"
     showgrid="false"
     inkscape:zoom="9.8333333"
     inkscape:cx="1.0677966"
     inkscape:cy="12"
     inkscape:window-x="0"
     inkscape:window-y="25"
     inkscape:window-maximized="0"
     inkscape:current-layer="svg4" />
  <path
     d="m 14.873,0.243 a 0.783,0.783 0 0 0 -0.76,0.783 l 1.566,13.691 c 0,0.291 0.16,0.542 0.391,0.673 v 0.932 a 1.957,1.957 0 0 0 -0.26,3.754 2.309,2.309 0 0 1 -0.713,0.843 1.947,1.947 0 0 0 -1.766,-1.113 c -0.773,0 -1.446,0.45 -1.757,1.113 a 2.348,2.348 0 0 1 -0.723,-0.843 l -0.015,0.002 a 1.957,1.957 0 0 0 -0.237,-3.755 v -1.207 a 1.957,1.957 0 0 0 0,-3.825 H 9.817 a 1.957,1.957 0 0 0 -0.01,3.822 v 1.213 a 1.957,1.957 0 0 0 -0.027,3.812 1.947,1.947 0 0 0 0.003,0 1.957,1.957 0 0 0 0.034,0.01 h 0.017 a 1.947,1.947 0 0 0 0.204,0.03 l -0.197,-0.03 h 0.435 l -0.238,0.03 a 3.12,3.12 0 0 0 1.345,1.546 v 0.03 a 1.957,1.957 0 0 0 3.904,0 v -0.03 a 3.17,3.17 0 0 0 1.346,-1.547 1.947,1.947 0 0 0 0.22,-3.854 V 15.39 a 0.783,0.783 0 0 0 0.392,-0.673 L 16.081,4.55 a 9.656,9.656 0 0 1 7.166,3.202 L 23.89,8.465 V 8.163 A 6.725,6.725 0 0 0 20.888,2.552 6.725,6.725 0 0 0 17.165,1.427 H 15.72 l -0.04,-0.4 A 0.783,0.783 0 0 0 14.874,0.244 Z m -4.274,11.048 v -0.52 A 1.947,1.947 0 0 0 10.379,6.917 3.142,3.142 0 0 0 9.025,5.361 V 5.331 A 1.957,1.957 0 0 0 7.076,3.508 1.957,1.957 0 0 0 5.119,5.332 v 0.03 A 3.267,3.267 0 0 0 3.785,6.917 L 4.02,6.947 H 3.554 a 1.957,1.957 0 0 0 0,3.824 v 0.863 a 1.957,1.957 0 0 0 0,3.825 h 0.022 a 0.391,0.391 0 0 0 -0.022,0.13 v 0.526 l -0.784,0.79 -0.03,0.01 -0.402,-0.702 -0.682,0.4 0.402,0.704 a 3.413,3.413 0 0 0 -0.603,0.602 l -0.702,-0.402 -0.382,0.672 0.704,0.402 c -0.12,0.261 -0.192,0.532 -0.232,0.823 H 0.04 v 0.783 h 0.803 c 0.04,0.281 0.11,0.563 0.221,0.814 l -0.702,0.4 0.402,0.684 0.702,-0.402 c 0.17,0.22 0.37,0.42 0.602,0.601 l -0.412,0.704 0.673,0.38 0.4,-0.702 c 0.262,0.12 0.544,0.19 0.825,0.23 v 0.804 h 0.783 v -0.803 c 0.29,-0.04 0.562,-0.11 0.823,-0.22 l 0.402,0.702 0.682,-0.402 -0.402,-0.702 c 0.22,-0.17 0.422,-0.37 0.603,-0.602 L 7.147,22.095 7.529,21.422 6.825,21.02 A 2.94,2.94 0 0 0 7.047,20.197 H 7.849 V 19.414 H 7.047 a 3.112,3.112 0 0 0 -0.21,-0.823 l 0.701,-0.402 -0.402,-0.682 -0.702,0.4 a 3.142,3.142 0 0 0 -0.602,-0.6 L 6.233,16.604 5.562,16.222 5.16,16.924 5.12,16.904 4.337,16.14 V 15.59 A 0.391,0.391 0 0 0 4.314,15.46 h 0.023 a 1.957,1.957 0 0 0 0,-3.826 v -0.863 a 1.957,1.957 0 0 0 0.24,-3.755 l 0.01,0.002 C 4.768,6.676 5.009,6.385 5.32,6.175 a 1.947,1.947 0 0 0 3.513,0 c 0.301,0.21 0.552,0.501 0.722,0.843 a 1.957,1.957 0 0 0 0.262,3.753 v 0.514 z M 7.078,4.158 c 0.542,0 1.003,0.381 1.133,0.883 a 3.112,3.112 0 0 0 -0.742,-0.1 v 0.782 c 0.23,0 0.46,0.04 0.671,0.1 C 7.95,6.225 7.55,6.506 7.078,6.506 A 1.18,1.18 0 0 1 6.013,5.824 C 6.224,5.764 6.453,5.723 6.685,5.723 V 4.94 C 6.434,4.94 6.183,4.98 5.942,5.04 6.082,4.539 6.535,4.158 7.078,4.158 Z M 3.554,7.75 V 8.461 H 4.337 V 7.76 a 1.174,1.174 0 0 1 0,2.209 V 9.246 H 3.545 V 9.958 A 1.174,1.174 0 0 1 2.762,8.854 h 0.01 c 0,-0.502 0.32,-0.933 0.782,-1.103 z m 7.025,0 c 0.462,0.15 0.805,0.592 0.805,1.104 0,0.502 -0.333,0.934 -0.785,1.104 V 9.245 H 9.807 V 9.948 A 1.174,1.174 0 0 1 9.025,8.843 l 0.01,0.011 c 0,-0.502 0.31,-0.924 0.752,-1.095 0.02,0.1 0.03,0.202 0.03,0.312 v 0.392 h 0.782 V 8.071 Z m -0.762,4.344 v 0.712 h 0.782 v -0.702 a 1.174,1.174 0 0 1 0,2.208 V 13.59 H 9.807 v 0.712 A 1.174,1.174 0 0 1 9.025,13.197 h 0.01 c 0,-0.502 0.32,-0.932 0.782,-1.103 z m -6.263,0.344 v 0.711 h 0.783 v -0.702 a 1.174,1.174 0 0 1 0,2.209 V 13.933 H 3.545 v 0.712 A 1.174,1.174 0 0 1 2.762,13.541 h 0.01 c 0,-0.502 0.32,-0.933 0.782,-1.103 z m 6.253,4.692 v 0.311 c 0,0.017 0.008,0.03 0.01,0.047 v 0.35 h 0.782 v -0.703 a 1.174,1.174 0 0 1 0,2.209 V 18.621 H 9.807 v 0.712 A 1.174,1.174 0 0 1 9.025,18.229 h 0.01 c 0,-0.499 0.316,-0.925 0.772,-1.099 z m 6.263,0.005 v 0.702 h 0.783 v -0.702 c 0.451,0.16 0.784,0.603 0.784,1.104 0,0.512 -0.343,0.943 -0.804,1.103 l 0.02,-0.32 V 18.62 H 16.07 v 0.402 l -0.02,0.3 a 1.154,1.154 0 0 1 -0.763,-1.083 c 0,-0.501 0.331,-0.943 0.783,-1.104 z M 3.554,17.847 h 0.783 v 0.784 H 3.554 Z M 1.998,19.413 H 2.77 v 0.783 H 1.998 Z m 1.556,0 h 0.783 v 0.783 H 3.554 Z m 1.565,0 h 0.783 v 0.783 H 5.119 Z m 8.172,1.171 a 1.174,1.174 0 0 1 1.104,0.676 c -0.21,0.07 -0.442,0.1 -0.673,0.1 v 0.783 a 3.011,3.011 0 0 0 0.743,-0.09 c -0.131,0.502 -0.592,0.873 -1.134,0.873 -0.542,0 -0.994,-0.37 -1.125,-0.872 0.231,0.06 0.481,0.1 0.732,0.1 v -0.793 c -0.23,0 -0.45,-0.03 -0.671,-0.1 a 1.174,1.174 0 0 1 1.024,-0.677 z m -9.737,0.395 h 0.783 v 0.773 H 3.554 Z"
     id="path2"
     inkscape:connector-curvature="0"
     style="fill:#808080" />
</svg>
